tools/download-figma-icons/icons/outlined-medium/hot-water-bottle.svg

<svg width="24" height="24" viewBox="0 0 24 24" fill="none" xmlns="http://www.w3.org/2000/svg">
<path d="M18.0076 7.4325L15.0976 5.4975L15.6976 3.675C15.8026 3.345 15.7501 2.9775 15.5476 2.7C15.3451 2.4225 15.0151 2.25 14.6776 2.25H14.2576C14.2576 1.005 13.2451 0 12.0076 0C10.7701 0 9.75757 1.0125 9.75757 2.25H9.33757C8.99257 2.25 8.67007 2.415 8.46007 2.7C8.25757 2.985 8.19757 3.345 8.31007 3.675L8.91007 5.4975L5.96257 7.4625C5.04007 8.1675 4.50757 9.2175 4.50757 10.35V21.4125C4.50757 22.8375 5.70757 24 7.18507 24H16.8301C18.3076 24 19.5076 22.8375 19.5076 21.4125V10.35C19.5076 9.2175 18.9751 8.1675 18.0151 7.4325H18.0076ZM12.0001 5.25H10.4026L9.90757 3.75H14.0926L13.5976 5.25H12.0001ZM12.0001 1.5C12.4126 1.5 12.7501 1.8375 12.7501 2.25H11.2501C11.2501 1.8375 11.5876 1.5 12.0001 1.5ZM18.0001 21.4125C18.0001 22.0125 17.4676 22.5 16.8226 22.5H7.17757C6.52507 22.5 6.00007 22.0125 6.00007 21.4125V10.35C6.00007 9.69 6.31507 9.075 6.82507 8.685L9.72007 6.7575H14.2801L17.1376 8.655C17.6851 9.075 18.0001 9.69 18.0001 10.35V21.4125Z" fill="black"/>
</svg>

<svg xmlns="http://www.w3.org/2000/svg" width="24" height="24" fill="none" viewBox="0 0 24 24"><path fill="currentColor" d="m18.008 7.433-2.91-1.936.6-1.822a1.1 1.1 0 0 0-.15-.975 1.1 1.1 0 0 0-.87-.45h-.42A2.25 2.25 0 0 0 12.008 0a2.257 2.257 0 0 0-2.25 2.25h-.42c-.345 0-.668.165-.878.45a1.08 1.08 0 0 0-.15.975l.6 1.822-2.947 1.966c-.923.705-1.455 1.754-1.455 2.887v11.063c0 1.424 1.2 2.587 2.677 2.587h9.645c1.478 0 2.678-1.163 2.678-2.587V10.35c0-1.133-.533-2.182-1.493-2.917zM12 5.25h-1.597l-.495-1.5h4.185l-.495 1.5zm0-3.75c.413 0 .75.337.75.75h-1.5c0-.413.338-.75.75-.75m6 19.913c0 .6-.532 1.087-1.177 1.087H7.178C6.525 22.5 6 22.012 6 21.413V10.35c0-.66.315-1.275.825-1.665L9.72 6.757h4.56l2.858 1.898c.547.42.862 1.035.862 1.695z"/></svg>
